X: 5
T: The Liverpool
R: hornpipe
M: 4/4
L: 1/8
K: Dmaj
|: A>G | F>DF>A d>fa>f | g>fe>d d>cB>A | G>BG>B F>AF>A | E>DE>F G>BA>G |
F>DF>A d>fa>f | g>fe>d d>cB>A | d>fa>f b>ge>c | d2 d2 d2 :|
|: (3ABc | d>fd>f c>ec>e | B>AB>c d>cB>A | G>BG>B F>AF>A | E>DE>F G>BA>G |
F>DF>A d>fa>f | g>fe>d d>cB>A | d>fa>f b>ge>c | d2 d2 d2 :|


Tune 1500	Setting 14893

